X: 19153
T: Irish, The
R: mazurka
M: 3/4
K: Gmajor
|:DG|B2 BA GA|d2 d2 AB|c2 ce dc|B2 B2 DG|
B2 BA GA|d2 d2 AB|cB cA FA|G4:|
|:gf|e2 eg fe|d2 d2 AB|c2 ce dc|B2 B2 gf|
e2 eg fe|d^c dB AB|cB cA FA|G4:|

